%
(Header)
(Generated by gcodetools from Inkscape.)
(Using default header. To add your own header create file "header" in the output dir.)
M3
(Header end.)
G21 (All units in mm)

(Start cutting path id: path21)
(Change tool to Default tool)

M3 S90
G00 X110.508842 Y207.627679

M5
G03 X107.025674 Y210.971624 Z-1.000000 I-8.151765 J-5.005093 F400.000000
G03 X102.348838 Y212.190413 Z-1.000000 I-4.676836 J-8.363772
G01 X70.202003 Y212.190413 Z-1.000000
G03 X61.593179 Y209.284320 Z-1.000000 I0.000000 J-14.204165
G03 X56.506923 Y201.754466 Z-1.000000 I8.608448 J-11.297579
G01 X56.257421 Y200.844829 Z-1.000000
G03 X54.665456 Y194.679253 Z-1.000000 I189.339854 J-52.176280
G02 X54.556417 Y194.232636 Z-1.000000 I-74.791293 J18.023188
G03 X54.542582 Y193.341245 Z-1.000000 I1.925090 J-0.475681
G03 X54.920483 Y192.533483 Z-1.000000 I1.942423 J0.416459
G03 X55.613935 Y191.972955 Z-1.000000 I1.563284 J1.224788
G03 X56.482846 Y191.772543 Z-1.000000 I0.868911 J1.783425
G01 X116.712520 Y191.772543 Z-1.000000
G03 X117.716748 Y192.045325 Z-1.000000 I-0.000000 J1.984889
G03 X118.444745 Y192.788806 Z-1.000000 I-1.003352 J1.710613
G03 X118.696543 Y193.798562 Z-1.000000 I-1.731831 J0.968131
G03 X118.402676 Y194.796726 Z-1.000000 I-1.983520 J-0.041623
G01 X110.508842 Y207.627679 Z-1.000000
M3 S90

(End cutting path id: path21)


(Start cutting path id: path15)
(Change tool to Default tool)

M3 S90
G00 X102.452554 Y188.622418

M5
G01 X98.282726 Y188.622418 Z-1.000000 F400.000000
G03 X96.879563 Y188.041208 Z-1.000000 I-0.000000 J-1.984373
G03 X96.298354 Y186.638045 Z-1.000000 I1.403163 J-1.403163
G03 X96.879563 Y185.234882 Z-1.000000 I1.984373 J-0.000000
G03 X98.282726 Y184.653673 Z-1.000000 I1.403163 J1.403163
G01 X102.452554 Y184.653673 Z-1.000000
G03 X103.855718 Y185.234882 Z-1.000000 I0.000000 J1.984373
G03 X104.436927 Y186.638045 Z-1.000000 I-1.403163 J1.403163
G03 X103.855837 Y188.041089 Z-1.000000 I-1.984373 J0.000000
G03 X102.452554 Y188.622418 Z-1.000000 I-1.403283 J-1.403043
G01 X102.452554 Y188.622418 Z-1.000000
M3 S90

(End cutting path id: path15)


(Start cutting path id: path21)
(Change tool to Default tool)

M3 S90
G00 X91.548295 Y195.741817

M5
G01 X91.548295 Y208.221932 Z-1.000000 F400.000000
G01 X102.348838 Y208.221932 Z-1.000000
G02 X105.087171 Y207.508399 Z-1.000000 I-0.000000 J-5.611227
G02 X107.127736 Y205.549644 Z-1.000000 I-2.734695 J-4.891188
G01 X113.162080 Y195.741817 Z-1.000000
G01 X91.548295 Y195.741817 Z-1.000000
M3 S90

(End cutting path id: path21)


(Start cutting path id: path21)
(Change tool to Default tool)

M3 S90
G00 X87.579550 Y208.221932

M5
G01 X87.579550 Y195.741817 Z-1.000000 F400.000000
G01 X69.309036 Y195.741817 Z-1.000000
G01 X69.309036 Y208.181980 Z-1.000000
G02 X69.751980 Y208.211604 Z-1.000000 I0.930507 J-10.586896
G02 X70.202003 Y208.221932 Z-1.000000 I0.450023 J-9.799102
G01 X87.579550 Y208.221932 Z-1.000000
M3 S90

(End cutting path id: path21)


(Start cutting path id: path17)
(Change tool to Default tool)

M3 S90
G00 X75.804019 Y186.638045

M5
G03 X75.222810 Y188.041208 Z-1.000000 I-1.984373 J0.000000 F400.000000
G03 X73.819647 Y188.622418 Z-1.000000 I-1.403163 J-1.403163
G01 X69.649819 Y188.622418 Z-1.000000
G03 X68.246655 Y188.041208 Z-1.000000 I-0.000000 J-1.984373
G03 X67.665446 Y186.638045 Z-1.000000 I1.403163 J-1.403163
G03 X68.246655 Y185.234882 Z-1.000000 I1.984373 J-0.000000
G03 X69.649819 Y184.653673 Z-1.000000 I1.403163 J1.403163
G01 X73.819647 Y184.653673 Z-1.000000
G03 X75.222810 Y185.234882 Z-1.000000 I0.000000 J1.984373
G03 X75.804019 Y186.638045 Z-1.000000 I-1.403163 J1.403163
G01 X75.804019 Y186.638045 Z-1.000000
M3 S90

(End cutting path id: path17)


(Start cutting path id: path19)
(Change tool to Default tool)

M3 S90
G00 X78.261995 Y170.440538

M5
G03 X77.409245 Y171.406081 Z-1.000000 I-1.863743 J-0.786688 F400.000000
G03 X76.138717 Y171.643333 Z-1.000000 I-0.971998 J-1.684645
G03 X75.082286 Y171.131330 Z-1.000000 I0.308042 J-1.981477
G03 X74.494863 Y170.115101 Z-1.000000 I1.358743 J-1.463303
G03 X75.316152 Y168.037551 Z-1.000000 I1.921417 J-0.441542
G03 X77.548150 Y168.043681 Z-1.000000 I1.111468 J1.652874
G03 X78.330662 Y169.115152 Z-1.000000 I-1.110363 J1.632391
G03 X78.261995 Y170.440538 Z-1.000000 I-1.908627 J0.565588
G01 X78.261995 Y170.439546 Z-1.000000
G01 X78.261995 Y170.440538 Z-1.000000
G01 X78.261995 Y170.440538 Z-1.000000
M3 S90

(End cutting path id: path19)


(Start cutting path id: path9)
(Change tool to Default tool)

M3 S90
G00 X60.036460 Y170.660407

M5
G03 X55.351953 Y168.720020 Z-1.000000 I0.000000 J-6.624894 F400.000000
G03 X53.411566 Y164.035513 Z-1.000000 I4.684507 J-4.684507
G03 X55.351953 Y159.351006 Z-1.000000 I6.624894 J0.000000
G03 X60.036460 Y157.410619 Z-1.000000 I4.684507 J4.684507
G03 X64.721087 Y159.351126 Z-1.000000 I-0.000000 J6.624894
G03 X66.661354 Y164.035513 Z-1.000000 I-4.684627 J4.684387
G03 X64.721087 Y168.719900 Z-1.000000 I-6.624894 J-0.000000
G03 X60.036460 Y170.660407 Z-1.000000 I-4.684627 J-4.684387
G01 X60.036460 Y170.660407 Z-1.000000
M3 S90

(End cutting path id: path9)


(Start cutting path id: path9)
(Change tool to Default tool)

M3 S90
G00 X60.036460 Y161.379364

M5
G02 X58.158159 Y162.157452 Z-1.000000 I0.000000 J2.656149 F400.000000
G02 X57.380311 Y164.035513 Z-1.000000 I1.878301 J1.878061
G02 X58.158159 Y165.913574 Z-1.000000 I2.656149 J0.000000
G02 X60.036460 Y166.691662 Z-1.000000 I1.878301 J-1.878061
G02 X61.914641 Y165.913694 Z-1.000000 I0.000000 J-2.656149
G02 X62.692609 Y164.035513 Z-1.000000 I-1.878181 J-1.878181
G02 X61.914641 Y162.157332 Z-1.000000 I-2.656149 J0.000000
G02 X60.036460 Y161.379364 Z-1.000000 I-1.878181 J1.878181
G01 X60.036460 Y161.379364 Z-1.000000
M3 S90

(End cutting path id: path9)


(Start cutting path id: path13)
(Change tool to Default tool)

M3 S90
G00 X60.036460 Y154.707639

M5
G02 X53.440657 Y157.439710 Z-1.000000 I0.000000 J9.327874 F400.000000
G02 X50.708586 Y164.035513 Z-1.000000 I6.595803 J6.595803
G02 X53.440630 Y170.631476 Z-1.000000 I9.328325 J-0.000000
G02 X60.036460 Y173.363651 Z-1.000000 I6.595830 J-6.595511
G02 X66.632290 Y170.631476 Z-1.000000 I-0.000000 J-9.327687
G02 X69.364334 Y164.035513 Z-1.000000 I-6.596282 J-6.595962
G02 X66.632263 Y157.439710 Z-1.000000 I-9.327874 J-0.000000
G02 X60.036460 Y154.707639 Z-1.000000 I-6.595803 J6.595803
G01 X60.036460 Y154.707639 Z-1.000000
M3 S90

(End cutting path id: path13)


(Start cutting path id: path13)
(Change tool to Default tool)

M3 S90
G00 X38.803145 Y167.696284

M5
G01 X47.256307 Y167.696284 Z-1.000000 F400.000000
G03 X46.975422 Y166.518245 Z-1.000000 I12.836393 J-3.683145
G03 X46.800166 Y165.285139 Z-1.000000 I12.875789 J-2.458987
G01 X38.803145 Y165.285139 Z-1.000000
G01 X38.803145 Y167.696284 Z-1.000000
M3 S90

(End cutting path id: path13)


(Start cutting path id: path21)
(Change tool to Default tool)

M3 S90
G00 X60.084085 Y199.793112

M5
G01 X60.333851 Y200.703542 Z-1.000000 F400.000000
G02 X62.252137 Y204.426544 Z-1.000000 I9.810513 J-2.699189
G02 X65.340291 Y206.986594 Z-1.000000 I8.005663 J-6.514498
G01 X65.340291 Y195.742082 Z-1.000000
G01 X59.025753 Y195.742082 Z-1.000000
G02 X59.581263 Y197.910795 Z-1.000000 I421.413974 J-106.788597
G02 X60.084085 Y199.793112 Z-1.000000 I122.426252 J-31.695300
G01 X60.084085 Y199.793112 Z-1.000000
M3 S90

(End cutting path id: path21)


(Start cutting path id: path13)
(Change tool to Default tool)

M3 S90
G00 X129.293706 Y177.332396

M5
G03 X122.970800 Y175.725423 Z-1.000000 I0.000000 J-13.242755 F400.000000
G03 X118.413524 Y171.665029 Z-1.000000 I6.390540 J-11.760246
G01 X83.100954 Y171.665029 Z-1.000000
G03 X81.697791 Y171.083819 Z-1.000000 I-0.000000 J-1.984373
G03 X81.116581 Y169.680656 Z-1.000000 I1.403163 J-1.403163
G03 X81.697791 Y168.277493 Z-1.000000 I1.984372 J0.000000
G03 X83.100954 Y167.696284 Z-1.000000 I1.403163 J1.403163
G01 X116.513553 Y167.696284 Z-1.000000
G03 X116.232668 Y166.518245 Z-1.000000 I12.836393 J-3.683145
G03 X116.057412 Y165.285139 Z-1.000000 I12.875789 J-2.458987
G01 X73.272754 Y165.285139 Z-1.000000
G03 X69.051265 Y173.811358 Z-1.000000 I-13.222615 J-1.238583
G03 X60.036460 Y177.332396 Z-1.000000 I-9.014805 J-9.779642
G03 X53.713554 Y175.725423 Z-1.000000 I0.000000 J-13.242755
G03 X49.156278 Y171.665029 Z-1.000000 I6.390540 J-11.760246
G01 X38.803145 Y171.665029 Z-1.000000
G01 X38.803145 Y185.264330 Z-1.000000
G02 X39.700214 Y187.935425 Z-1.000000 I4.425233 J-0.000000
G02 X42.027618 Y189.523587 Z-1.000000 I3.528345 J-2.671232
G03 X49.543672 Y193.944027 Z-1.000000 I-4.657311 J16.518780
G03 X53.917978 Y201.487501 Z-1.000000 I-12.175217 J12.100182
G01 X54.168803 Y202.398990 Z-1.000000
G02 X60.124130 Y211.213725 Z-1.000000 I16.034876 J-4.414221
G02 X70.202797 Y214.615845 Z-1.000000 I10.078667 J-13.227799
G01 X102.348573 Y214.615845 Z-1.000000
G02 X108.205872 Y213.090061 Z-1.000000 I0.000000 J-12.005618
G02 X112.573912 Y208.900852 Z-1.000000 I-5.856446 J-10.478307
G01 X122.529112 Y192.717898 Z-1.000000
G03 X123.154398 Y192.083254 Z-1.000000 I1.689850 J1.039576
G03 X123.994109 Y191.786037 Z-1.000000 I1.065658 J1.675940
G01 X142.658058 Y189.653762 Z-1.000000
G02 X148.344528 Y187.315464 Z-1.000000 I-1.281559 J-11.200170
G02 X151.831151 Y182.701579 Z-1.000000 I-7.022399 J-8.931019
G01 X145.636469 Y182.701579 Z-1.000000
G03 X144.233305 Y182.120370 Z-1.000000 I-0.000000 J-1.984372
G03 X143.652096 Y180.717207 Z-1.000000 I1.403163 J-1.403163
G03 X144.233305 Y179.314043 Z-1.000000 I1.984372 J0.000000
G03 X145.636469 Y178.732834 Z-1.000000 I1.403163 J1.403163
G01 X152.668556 Y178.732834 Z-1.000000
G02 X152.663264 Y177.949761 Z-1.000000 I-11.834024 J-0.311579
G02 X152.601616 Y177.147188 Z-1.000000 I-10.923671 J0.435418
G01 X151.976142 Y171.665029 Z-1.000000
G01 X140.173624 Y171.665029 Z-1.000000
G03 X135.616474 Y175.725487 Z-1.000000 I-10.946713 J-7.698229
G03 X129.293706 Y177.332396 Z-1.000000 I-6.322768 J-11.635764
G01 X129.293706 Y177.332396 Z-1.000000
M3 S90

(End cutting path id: path13)


(Start cutting path id: path11)
(Change tool to Default tool)

M3 S90
G00 X129.293706 Y170.660407

M5
G03 X124.609039 Y168.720048 Z-1.000000 I0.000000 J-6.625345 F400.000000
G03 X122.668548 Y164.035513 Z-1.000000 I4.684215 J-4.684535
G03 X124.609039 Y159.350978 Z-1.000000 I6.624707 J0.000000
G03 X129.293706 Y157.410619 Z-1.000000 I4.684667 J4.684986
G03 X133.978054 Y159.351033 Z-1.000000 I-0.000000 J6.624442
G03 X135.918335 Y164.035513 Z-1.000000 I-4.684799 J4.684480
G03 X133.978054 Y168.719993 Z-1.000000 I-6.625081 J0.000000
G03 X129.293706 Y170.660407 Z-1.000000 I-4.684348 J-4.684028
G01 X129.293706 Y170.660407 Z-1.000000
M3 S90

(End cutting path id: path11)


(Start cutting path id: path11)
(Change tool to Default tool)

M3 S90
G00 X129.293706 Y161.379364

M5
G02 X127.415246 Y162.157425 Z-1.000000 I0.000000 J2.656600 F400.000000
G02 X126.637293 Y164.035513 Z-1.000000 I1.878009 J1.878088
G02 X127.415246 Y165.913601 Z-1.000000 I2.655962 J-0.000000
G02 X129.293706 Y166.691662 Z-1.000000 I1.878460 J-1.878540
G02 X131.171607 Y165.913786 Z-1.000000 I0.000000 J-2.655697
G02 X131.949590 Y164.035513 Z-1.000000 I-1.878353 J-1.878273
G02 X131.171607 Y162.157240 Z-1.000000 I-2.656336 J-0.000000
G02 X129.293706 Y161.379364 Z-1.000000 I-1.877901 J1.877822
G01 X129.293706 Y161.379364 Z-1.000000
M3 S90

(End cutting path id: path11)


(Start cutting path id: path13)
(Change tool to Default tool)

M3 S90
G00 X129.293706 Y154.707639

M5
G02 X122.697903 Y157.439710 Z-1.000000 I0.000000 J9.327874 F400.000000
G02 X119.965832 Y164.035513 Z-1.000000 I6.595803 J6.595803
G02 X122.697876 Y170.631476 Z-1.000000 I9.328325 J-0.000000
G02 X129.293706 Y173.363651 Z-1.000000 I6.595830 J-6.595511
G02 X135.889536 Y170.631476 Z-1.000000 I0.000000 J-9.327687
G02 X138.621580 Y164.035513 Z-1.000000 I-6.596282 J-6.595962
G02 X135.889509 Y157.439710 Z-1.000000 I-9.327874 J-0.000000
G02 X129.293706 Y154.707639 Z-1.000000 I-6.595803 J6.595803
G01 X129.293706 Y154.707639 Z-1.000000
M3 S90

(End cutting path id: path13)


(Start cutting path id: path13)
(Change tool to Default tool)

M3 S90
G00 X142.529735 Y165.285139

M5
G03 X142.354580 Y166.518236 Z-1.000000 I-12.986318 J-1.215652 F400.000000
G03 X142.073594 Y167.696284 Z-1.000000 I-13.140169 J-2.511637
G01 X151.523440 Y167.696284 Z-1.000000
G01 X151.248274 Y165.285139 Z-1.000000
G01 X142.529735 Y165.285139 Z-1.000000
M3 S90

(End cutting path id: path13)


(Start cutting path id: path13)
(Change tool to Default tool)

M3 S90
G00 X143.108907 Y193.596843

M5
G01 X125.403807 Y195.619580 Z-1.000000 F400.000000
G01 X115.954489 Y210.980210 Z-1.000000
G03 X110.142088 Y216.554479 Z-1.000000 I-13.605251 J-8.368979
G03 X102.348573 Y218.584590 Z-1.000000 I-7.793514 J-13.944438
G01 X70.202797 Y218.584590 Z-1.000000
G03 X57.719174 Y214.370698 Z-1.000000 I0.000000 J-20.598263
G03 X50.342403 Y203.452295 Z-1.000000 I12.485319 J-16.386597
G01 X50.091579 Y202.540806 Z-1.000000
G02 X46.728745 Y196.741731 Z-1.000000 I-12.721581 J3.502559
G02 X40.950501 Y193.343372 Z-1.000000 I-9.359433 J9.302316
G03 X36.535913 Y190.330797 Z-1.000000 I2.278442 J-8.079625
G03 X34.834400 Y185.264330 Z-1.000000 I6.692259 J-5.066467
G01 X34.834400 Y163.300766 Z-1.000000
G03 X35.415609 Y161.897603 Z-1.000000 I1.984372 J0.000000
G03 X36.818773 Y161.316394 Z-1.000000 I1.403163 J1.403163
G01 X47.020299 Y161.316394 Z-1.000000
G03 X51.526888 Y153.817436 Z-1.000000 I13.009378 J2.714519
G03 X60.036460 Y150.738894 Z-1.000000 I8.509572 J10.221624
G03 X68.546032 Y153.817436 Z-1.000000 I0.000000 J13.300166
G03 X73.052621 Y161.316394 Z-1.000000 I-8.502789 J10.213477
G01 X116.277545 Y161.316394 Z-1.000000
G03 X120.784134 Y153.817436 Z-1.000000 I13.009378 J2.714519
G03 X129.293706 Y150.738894 Z-1.000000 I8.509572 J10.221624
G03 X137.803278 Y153.817436 Z-1.000000 I0.000000 J13.300166
G03 X142.309867 Y161.316394 Z-1.000000 I-8.502789 J10.213477
G01 X153.019393 Y161.316394 Z-1.000000
G03 X154.340656 Y161.820146 Z-1.000000 I0.000000 J1.984612
G03 X154.991065 Y163.075871 Z-1.000000 I-1.320930 J1.480486
G01 X156.545226 Y176.697397 Z-1.000000
G03 X153.326899 Y187.928238 Z-1.000000 I-15.168560 J1.729820
G03 X143.108907 Y193.596843 Z-1.000000 I-11.953798 J-9.503855
G01 X143.108907 Y193.596843 Z-1.000000
M3 S90

(End cutting path id: path13)


(Footer)
M5
M3 S90
G00 X0.0000 Y0.0000
M2
(Using default footer. To add your own footer create file "footer" in the output dir.)
(end)
%
